public/assets/images/passd.svg

<svg fill="#1da1f2" viewBox="0 0 60 60" xmlns="http://www.w3.org/2000/svg"><path d="m60 31.4285714v.0028572c0 4.2685714-2.2427503 7.9914285-5.5511642 9.9542857.0599971.4828571.0942812.9685714.0942812 1.4657143 0 6.3142857-4.8797676 11.4285714-10.908052 11.4285714-1.3456502 0-2.6313033-.2428571-3.8169611-.7085714-1.7684872 3.8114285-5.4997381 6.4285714-9.8195324 6.4285714-4.3169373 0-8.0481882-2.6171429-9.8195324-6.4285714-1.1856578.4685714-2.4713109.7142857-3.8141041.7142857-6.0282844 0-10.90805199-5.1142857-10.90805199-11.4285714 0-.4971429.03428408-.9828572.09142421-1.4685715-3.3141279-1.9657143-5.54830722-5.6885714-5.54830722-9.96 0-4.52 2.49988096-8.4285714 6.13399362-10.2857143-.43997905-1.2457142-.67711061-2.5885714-.67711061-4 0-6.3142857 4.87976759-11.42857139 10.90805199-11.42857139 1.3427932 0 2.6313033.24285715 3.8169611.71428572 1.7742012-3.80857143 5.5054521-6.42857143 9.8195324-6.42857143s8.0510452 2.61428571 9.8166754 6.43428571c1.1885148-.47428571 2.4741679-.71428571 3.8169611-.71428571 6.0225704 0 10.908052 5.1085714 10.908052 11.4228571 0 1.4142858-.2399886 2.7571429-.6799676 4 3.6369696 1.8571429 6.1368506 5.7714286 6.1368506 10.2857143zm-18.2629167-15.4285714-15.9870833 17.0461053-7.4885-7.3846316-5.2615 5.4762105 12.75 12.8623158 21.25-22.5252632z"/></svg>

<svg version="1.1" viewBox="0 0 60 60" fill="#1DA1F2" xmlns="http://www.w3.org/2000/svg">
    <path
            d="M60,31.4285714 L60,31.4314286 C60,35.7 57.7572497,39.4228571 54.4488358,41.3857143 C54.5088329,41.8685714 54.543117,42.3542857 54.543117,42.8514286 C54.543117,49.1657143 49.6633494,54.28 43.635065,54.28 C42.2894148,54.28 41.0037617,54.0371429 39.8181039,53.5714286 C38.0496167,57.3828571 34.3183658,60 29.9985715,60 C25.6816342,60 21.9503833,57.3828571 20.1790391,53.5714286 C18.9933813,54.04 17.7077282,54.2857143 16.364935,54.2857143 C10.3366506,54.2857143 5.45688301,49.1714286 5.45688301,42.8571429 C5.45688301,42.36 5.49116709,41.8742857 5.54830722,41.3885714 C2.23417932,39.4228571 0,35.7 0,31.4285714 C0,26.9085714 2.49988096,23 6.13399362,21.1428571 C5.69401457,19.8971429 5.45688301,18.5542857 5.45688301,17.1428571 C5.45688301,10.8285714 10.3366506,5.71428571 16.364935,5.71428571 C17.7077282,5.71428571 18.9962383,5.95714286 20.1818961,6.42857143 C21.9560973,2.62 25.6873482,0 30.0014285,0 C34.3155088,0 38.0524737,2.61428571 39.8181039,6.43428571 C41.0066187,5.96 42.2922718,5.72 43.635065,5.72 C49.6576354,5.72 54.543117,10.8285714 54.543117,17.1428571 C54.543117,18.5571429 54.3031284,19.9 53.8631494,21.1428571 C57.500119,23 60,26.9142857 60,31.4285714 Z M41.7370833,16 L25.75,33.0461053 L18.2615,25.6614737 L13,31.1376842 L25.75,44 L47,21.4747368 L41.7370833,16 Z"></path>
</svg>
